X:1
T:Menuet
T:Menuet
T:(Minuet) BWV Anh. 120
T:Johann Sebastian Bach
C:Johann Sebastian Bach
%%score 1 2
L:1/8
Q:1/4=132
M:3/4
K:C
V:1 treble 
V:2 bass 
V:1
 E2 | A>B c2 B2 | c2 A2 e2- | e2 edcB | c2 A2 f2- | f2 e2 ^d2 | e2 B2 e2- | e2 d2 ^c2 | d2 A2 d2- | %9
 d2 c2 B2 | c2 G2 c2 | BcdBfA | ^G4 :: G2 | c>d e2 d2 | e2 c2 g2- | g2 gfed | e2 c2 a2- | %18
 a2 g2 ^f2 | g2 d2 e2 | f2 d4 | c4 e2 | f2 T^f3 e/f/ | g2 d2 ^f2 | g2 T^g3 ^f/g/ | a2 e2 a2 | %26
 f2 e2 d2 | e2 E2 A2 | d2 B4 | A4 :| %30
V:2
 z2 | z2 z2 E,2 | A,>B, C2 B,2 | C2 A,2 E2- | E2 EDCB, | A,2 A,2 A,2 | ^G,2 G,2 G,2 | G,2 G,2 G,2 | %8
 ^F,2 F,2 F,2 | =F,2 F,2 F,2 | E,2 E,2 E,2 | D,2 D,2 D,2 | E,2 E,,2 :: z2 | z2 z2 G,2 | C>D E2 D2 | %16
 E2 D2 G2- | G2 GFED | C2 C2 C2 | B,2 G,2 C2 | A,2 F,2 G,2 | C,2 C,,2 z2 | z2 z2 A,,2 | %23
 _B,,2 TB,,3/2A,,/4B,,/4 C,2 | B,,2 E,,2 B,,2 | C,2 T^C,3/2B,,/4C,/4 A,,2 | D,2 E,2 F,2 | C,4 F,2 | %28
 D,2 E,2 E,,2 | A,4 :| %30

